-----BEGIN PGP MESSAGE-----

hQIMA125R7WLbuIzAQ//SnP0xsEELs26cnTPz4nVi6EMXIfodEz8ipbq4UvsRwf1
aiRKW8JEs6PvKjXVlp8/zbpeRkmLj7rC+rg5+wFU+QetS8okXe1odM3h8XHUYr2B
jtupIHTLnarUslq3pe4ZfiwlzORBfxiW4NixKGuQzlxbLKCBzWbbQTbpDp2e02mt
5HoJj1k8Ojx4J5FaOxwlAedQFpGtaZYyUJ08zcMdRi04VTlg2wCpQSR5RY9xhwiK
NZLxg6rRy1DN8yVyq0iWjKZKbvVV4CRtBG46gamFZP5ew3c6YC5xtameEGolFWge
CtPYLyObBgBqCQ1lG3U25+sDJUW8JxQAnthPkHB8PBb6AomrYwNEl3W0qfmI+TbC
agUsx6snkwGp+9hpnw2DEHUVxFcrBTnbAPxuoucXNa1NS3y57Lk1k8zRZpXYYhBt
QS6fQ6Giy4Ffn9JscRl0LObU96oR9fZ1MqygzecsjxJotbiLRVVQl4qp86NKeDhu
lEhtNJnGS493WwKtPxdW0N/F+rs9q1Ca5pAsSQeee5QmXNGCoeFIGFii3iV2NCgW
ArrdqdY5EGaoSF+gGoctf8xzkqwHEVZTvDDcDKqDrdeZMSIe6gOTnH6Exsoze8k8
EUEHR7VBb+kc+R7thzXXHfU9wfIxUFoOHcwLFSkobf0CyKle3achbZsUs10Wf0LS
6gHBuFXavLh3QZ7B6Zyx6BirJu0kaN6FEWuucrpWPToZ5z7bMFwqjWjm0zRjA+kd
C08cQOCSdf3jH0JxgjQfUzwgw644ztMwRUiymIHamEnX5Ji7V7luf+r+Mrgo/wEQ
PQW3VPFgKyCt6hl4TktJJU7v/qI+UJLQYOSsrvxw2tq2mCWzq4QqANUjW7CTd3iH
aMOEUAiOkqtvKlubRR4Ixe/6DUbCWRBT63ORTMCPQmBHXX9pdPcO3xoZCmKb0XSX
cq3eIhFCwP/3sxyfnC+b0DqxqJI056qdG4uZh05JoFNLFmMp6i9BXK1cvMc3J/yN
N2QTwMPx0gc0JYwlzvWy1sO6QOQj/dZ3poaujq5b4AcssvDJ98/QLoEAFtPpgCO5
rTSJesIQxVgKH2EWAUFztqCuhl8ydedSjJbVuq65Y9qSHjHhH4wji+9EhS/i1foX
yxzEdL+hMt9UlGIm54QXMF2yTfnsZGfy/E+qIgdUrHkXTfkqO/3IR3ekvAl3w0BH
a/Pw6gukMampEcVE66Iip+sjDHrnhGvG5Qwfazg1XlvIL4zd0bY1k0+kuSz5aeOX
LtjgaHDVTXQVP0brVEbToYcQ69N1DskaYtqdyDmo8pVdUBk1h9njBeSDQgXZ4gIQ
MG+ex+ogKsJqJv+EVW14KKlkCJ+3FFdTRE8lCTmP3AUqPlLXYwHLnsrKLLmqYENP
5C1S9BlA/I5sfby+j5uSlewFEmyRWIuHurOxhYdo7T6YbcUW15hrjfZ7gXi1n+yh
jsIfYewpntxYxMwZ3qTa8E1eCk+DVDrRptifYu/MN+3myfyPxPnFENwvxo5Qq6Qc
nmeF0dGfYJ33YfmkGn2cp9rpksw3/tkuWZ+FQqKHxTBx1JGuH06VQhqMSO/GnUfD
/xus0Fp9L94qcKZd7hTzNSepL5pQ6ffvFVLWUcyvZNib6ihla9jGgwxrAHLrF5e7
zIrRHo0MvVpdcsX5FcX4NYp/X2PlcSmrp2w7MQPhvZt4ihGkmQ+Z70VBKnkPQDiR
aw6oxecKRt8ZggJxCjb9o17nlptt+bkMa77G5ZwvJNlzi9cFEEJM6bRjZTKw7Hew
o9H6fifPz0zLHyk1C0uEmwAHNg532lfiAfZnkZciXAkCGO5mV1HqUfnrZ14qR7yr
UGI96rhvz76im+FBqCYRzOlQFwiIJkpuE5J94IHieeqXuYz8Eqv2+g0zjYblK2LI
XtUqvyZRRMyVcTDlHPMtA7ZEk3ma0k8VYum64MbhMPFJNJeCB0+8jb3fFSQYgzIs
cE7hBZ0gDpuw7hKsF/+qEemEpR+BVwRK3K3V7P7DRRQA6K9JJOIyRYcoG2zHYVI7
QcbsBDPX4vI+w9cYq0ogcGXq780OtaXWeecwcoFFC9hvRnLMeQzISCzomdf68a5q
n21uqhr3MMyhK0pr29PVxUMT5paa5atELA4CB2GY35v5mXb5F11UK9Mo1E0w2GQG
FqxAeKUOcgx2uhMFRK/W4VYh3rxI9WjKTuNXnzLJDeuBL26k+m9InP85judzOV4/
qCimraGu4rvLQCPtNfOOaR07o3hlHTjM34s4RblTnEmU9PSvAMHJdkAZwmM5II86
h4lCFOzbDWGY7onTJ1JnNOFNcd3vE1XsnIEVY7UTOWbRQI8RukK6okyRjX/NPMPe
vogt5xN8jxYSPEJgP5W30ihEO+Mu4AX2nyWEU0Vnv5C8t1Jb+Rg5oB5tgebi/Jr8
IMfT4I5iYdExXlRdX1tKXDuMeoA86YHq0Yv6p657STQhCqbQWIr5TdXuQmg60nuM
1Jy4X3BRAr+1P78f0Ry8vEGKEHJCMMwOPFyXWXVGDQ+nLtCJGft2geZcCf2CFx+j
5GHoiLHuAty1yqIlepQDBg9kHV8rziKV1xEb5SOhxF5fmk7BBUiXHlJiAjVuPEXo
1cq3+3saMIQWYj95KqjZauuYpimJdBF9D8N+BQkZ4hLgXhxoAuKXKLPJx7bMeYA1
t7FoMeX/vw80EuXIa77euTEfwZ95qYXe7bEsTwCkJXociIIES8XwDLYBiee5PgfK
T6O8L8HR4Wh/L27yyEENwVEwhtUH5jNHsIsn7lr7hCQskEr+dHqnATLn4AZB/s6M
g+43NAryx6gANncA1m7QsxxD6GVJ0+0VYhtBRUFeniLZVkKbaOiWE0zPe2+rbckK
0ywIMRsg0gmvFLp453jUVqCanedtm1NiEJjPZwoUK17gMWcyIzx7Y3d9aia3YlTk
cfAUMl/edg60LUt2sfLSHg6a0p8xhfa2d7+ililtNlNFVaEOqeaZrXiBZAVIouP6
VXQR8AlrxNJHhvvflPNoWrwaC52mKoyOMuEyQOUlxiAOneNEErBf0raumlp/u41U
Ssne/mvAhPJ25PjL7AV9cRe5oggX2fUpQdjFRSpwqF7klZQHbAYz/g/NBsyflJo9
EfFPqSavo+Oa/2KZcMxXiErNakdLQDGSSdXIbnKUB3bNO0k5oqx4g0P3AINZ9oHY
QR2K9ZX+wKkU5P2/y2INymVfYXkcdnMq6hOcU8STsKn80BAEVemlzHayKlHjXS+R
iQOYqQVWyaWJxmTGBzOplL8CLvJTTQg6QOfQSJF7xVqT8q8owzBKVKVLFABYYfih
Fk/Br9yR+t7z/wsIn//Z3NU9Pabp7+EtQ4h3Thi5rZnTDJZJe5kDcDiqePEAjwxe
uKeSsUWI8ci2AMEsmU40C2eu0ZUsfq0Q/sWeqHfZfcAwaerUyi/nXlUfmFFVW9sw
hOfXLwxJhWZHslKb0osLdqii4y0nxmYtuxYheS40cwZVqJhQBDF4g9qBXypxr0Ev
pioSDkwK45cmRTtLY0tS32u9fi/emKCOTYOseNun1EQgTGvE2unlxb1NNRR9JPaX
KZfjSI+P+c19LKdBQkna/ekTgCYRnSeI53O0EektyxpmVP0+Ufwzff7JKmE9E1en
oJQfMHgvH4RL+Yrv8hQIpTYfRYs8K+CLaRDuw5r+Z1EHbLbR3XFUWhMM1aAVNgMd
J1He4jXolmG6xCU5CGjcXAcR9GwNz5Cz6RAv1QXJTYpufNtfEJ1Im4yeDaTm3OmX
bRly3sBC2PA110Nwu63n7EaQEK2tfmMdjt+DjabBDrZPJJdvYDTAzSJPxZQTswFX
lGkbKQ/uSMJOwyIkcnuX6pIlmEp3LvTSfZNjawNQo9XHBmXudsIwELzUaNVtskrk
v4Dk8nMSqpesIkK9cZ0VIuj7BMc2UxpY01eJeA67Z6uN5yhetCqACp7jUbjsaJ1p
rPbDRSBVrKCTXao7+gydsYtLtgU50N7uwNHovmifEXce1gkLWjckPZneJWsMG/FS
Pxztq771zOtkGE89bs1PjIwNCQaib1wAUwFL/mgWzbGEEIdnii12CkZ3lgnC9jAR
flhdXkK0YYjeTn1aSH/8nDPfV6DCgs1SSS/shyy4dEiuYae68CNaqxwxdJTYzTGQ
kRze0W5EhDszeVmDlF31DUDRtiubPsBbjwyf7NeMzmRb99J/r3UPGdMIJ97bE/LG
kvpqBhk1qMYVyvrzaQ1Pjyq//haChPElV5Jz5vIaVB3fo+5Yt8P3/ytxnQ1kJyYP
wt/FkkzD6A5ShDfrY+WBHs7V1T1L9OSRQaIo6TzRoC9Wa4Cr23NWJH6icGIRtAFw
meUEcWZRSl+ndNSMVFcr3J/OytuCHnzHBXolb3uoPcywA7RpcQqaBYD6qvVIS64q
KmvnBV6MWImhOaWlZQN1Jz3z0aS7ao0ICR0jwCibd6I2xN0FbpO4/e1Y4yPXs2In
T+9K1unEpkMhraMQLuoxRPBnO2OgoFZFzVMsMA4WYpnhOrg+hQ3Ebnrwwii/jKld
OxIsIZF5xu4hKXEnRUH0dtqjV2gJ0OMwApgF9W0oHHibhAqIiH91E8YQaPhURTOa
+JamGcYbBX1I0NY/nG/ZztgSv/XoiMICXQgGEGCeqxV48+SbZeAsMJ/7tYKFlhvf
CUTYzccniLIBp6KdaewyVw1S5OA2KqVFvCoE1CNqP7rQCQpY1tmVsZU8c4b7Fkav
Dmjvutykgg7SXMoiKXqcDc9f+k71WM4wHXgGmaZmSfhlCmavHzI4DoedRGVnb+gZ
kSbD6Tlazuylp34fIQtzKQ2sU6FE91WIR8e/Oaa3QQiWkaxU3Yd5rU11xmJM9VNe
T88zZ5N4dSGtXorli4Dq5EgQgvDu90QkTdpsVUXWANQhzRMBHr5pepGAPvmbPCtp
eME8DHqEJv92EgOnzQCxbbC5tZb+FqUDTGSSQ67E2ejFyCcSEzHeiZjK7HYA53w/
YLuqPKDbQQmli86QMaQyO+JY2mAZ+qPLqisuX8R7znbrxx6CPV+NAkXdl5Yd21ME
UoIM9eNnyyh4NDtfmFVPMOUNAEJ91P0zCYiNbxNgvxAQ29GCtvmisKLzXudys/XI
A1IZZBVFP/vIZ4sUEdH/XJqGJUJrj+o/LAwnbmTHX0jDvrUaCfkmDJp8+E9lz/16
2VY4frdgCB5G+Z2lz+dECKKG88ZFQkFaOCLmm4+7iAUQw0H3EjxhCAu/quzdxrsP
1MJT9Im7jLjwPK0Russrm0Pz7vC+UklAk+auaFz1EXsdhdVWmmJcd9UcqjD80q4u
X8UDV8XAHxE8jlDCDtZWjyQZZf4SC2uKuqueoxZaQpRYul0yFMUIREUIoDNwiAB8
HZAXhPQJDwNUpWgJLhuQ3IL3x0oQWNmovcxhbnH9YFoiWPKQuejCt1e/88TUMrTm
y1PhGZWiJ8crbrCeqsBPCQXRqPpXoDxE6nnkfRX+57Akqp12wPfdo7mRmsECIBs0
lwZMz5F/wt5UWCCpfwEp/VrDoVVaMrs25SNcA3J+jlEgjPOvfGB92gyc4Hj+HZo2
OcVf650aptD/zwTKgcVfiZ6n/JhXIgXIBOz3qBaRMXoaSW2IrGhjIgf7LIWU5MrV
jR1xp4/q82lGnvy3PTrlLfofDl7htMiOiShH6t8xP+Ep8fWlcF3eLv8m4Xo1DMhz
Z5ZPscMLySAEKxBuy8N4QHsWLTh0xihaZAg/87FBXyUh4Cd13+GdojN1klTnY1Sc
+tOtP95Fh3cSY4TblwDTwxdsd3y8V+PzH3R6t3m6KARCnCLyHgOlidFQ3RVlONiF
IbEqDmv5lTKeMVxmVtiWemR13YcXbWab5d3wCqdCZO1N2HRcooX/yPh5PccQjE2I
K4BTGcJVup/N3oATnxJgre4gWOMF/q515lvMf4XGQaNdGx0qaHlmJS9WP/wJ5/QT
WZ4tQFtrd4nOstp19mHjevm7xP594+lcQ9LA5SR04YVAIZBrm8a4MlM4ACov1Sxh
J2G7hxPefWZTOFN3ztPDQceogVUxHUELdO+EQ4NONTqMOYf1P+Nvcq8u3zCl
=FRC8
-----END PGP MESSAGE-----
