-----BEGIN PGP MESSAGE-----

hQIMA125R7WLbuIzARAAq9hmZehz5ltbfk0DxlGYI5uAMhWaqug1CHFT2qGQgEiA
mGZj8pqAZVeBdOzzNe+28zOIzE3jaq9KOGPIQBGx6rgUJ87GTZrc8GxWARlyRSGz
iApRLxYXf/yHrCJUXn7ofNhlnRCXR9r+oZEkV1f+NksSFES+1vi57YJZI+DuOBZi
sDiQmDHMJGHLQH7H9z1VMDShB0LYQO8n7bHd5Dkk/lrHKr4JV0Ew1griCryMXMGL
tBYm2PzTnan+i3HsitnbGg1MFDjhKiwaztciX4jqvKRkz3jD7L1KZ/WTegmwN2+q
UBt8GPTu4speisAzdTCDXwRyY1uQKaMq8RgHl9EFpZH0kxgpySzGitE4vW8hzZQB
8ld9PA5tnlSCAWbK0aHb2tMPMwTD++PkclUnq6iB7eSzZcZwbao/S88lJbaPvcsb
k59Y1GFtw32qWxObigfSAsG29g93eA5is8EbR/kH0nq4dJQQXzwBIAG4x0ywM4OP
bYL9ocNFZiYFKHEr1UNSm/Y3JaS8ldQ1ufZQQyYUwh13vdIA4fJ7IPOBmSX1f/t4
7fnHZtiCUT+0JEV/lKuf2pdIfyKZGSkkDX6bpVmKygBfLdHP26a5ovZM9sTFvzmz
maqSz1YVL/DGqEBxyDnF2n02sBxdjyvRzbG7wc6dGRIVEk8vDbMc9W8Xb1jx2eLS
6gHDnkpzbh3h92cRBobqmbyAD4+d3CNhv04c4XB9p0/fTXEKy721+DimdgBhyJlU
blZIAFbDpGaDHQ92gWozHfI+jmRkJadmqmBaeOtTWiJMmjYq6DzCJNf69RQNdBwy
62z0OSD+8LdBU2gBCqYWwo4VEVKH4uF43u0YlzyxTahCzkHFQXcUvaQfmnR7cXId
EtEM8aIZguiSBoDohjlhfq1h4LLkB+wQUOqvr4Bql2EAMZGeRTxXGRMlCJybp5Y6
0Us1P1bezNJLf1t+UUE0NvzVTyzsHWyfWEI0zxjZp+jpAK7UL+pSskANVtPsZUPt
INrgu0B6LIs2BpuuX303LrClmvWx9bvGCeHe8nKFZwlYmvM0ItzACsafIm13oGrS
rZT2c0TX9JgT7ApB/F7ZLYudSCd7eu1r2y6FhZoT32f4WIoLxUrON53V5aTXdt+s
+1RJSL+4LwqKbb/htFxPmqw3y4DuIMpmqjQ7vOFWH7D2RMh+SioHbWhfdpeRjGW+
Z2P1AI94gWhWV+A8o55ZOkY7nP8sUhUmMsHG1X+OtbR/PGnD8uiqYLnHzOfUrx4n
DrfN8/FOVp4799a39JR0P0AO8+kcxlmaCA9p7t22/BIg7yf2q6qnUt9rpofTnGu1
WnGZUTUOawrB0rwfgOkr3mciKs9k6PRnoN7KrOdMUUUnT0Gi/CaPT/ZrtFkIQLHr
R1R2/3OG+MJPAw0u8TT/wztPRT0x5PNe8nvMAUp6H7TplhcGszuo2pcoWbvF6FM/
ieMH7oLgiRf/0tLonmLqLSzfq4tdJnzLximCQ4dcXmVBcEKcqmb2e1rM9GlTY+cY
RlWmYFouSly3gAUlFRzDdCpa39j/5RHOsajKw5gciYiIldkxc/S98yvSXmn3PPAB
yZeHoep89bIx0qkn1ccg7NkPqeEr8rajukaHa4MBoc8FQ56vbAmMHOIfmfOLvp5B
h0jCQPi87iJieCOlKrMp8oIg3wpTiQYXruSrErxvDfSKainbqV+SSlHDjs/+Jne3
Uu+3caXkiPsZx5990j1YX88RWcIP/E85e6VSnQEh7WkB6I1ij1uvU+kI6zaGtiGU
41QJD/s6ZBTRnJmMJHCPnAPFSgX4vmC5iKJgw9CnmRq8W00W+yvK/ADjLsrsnB+v
7DFTqeLXvJ63EAGhoRrvE1wRtmrD9EacEd7OvSbbMDh12YTAgH2JqTCL6QxWBeVe
qIgl2NA45lveH32PfP+FsxIit4YIWfyycgw8/yzvdbWoA9PMoy3jeW7Tq5rLmEID
JNUhdwypsBmHY8XrAWnpYRCI94aWMn0h0OSzYZiISgBtXEp5OBFoR+HdZIujVQjY
AXrychEWw3yVQ8Ca81Kw4tXqdUujhZ4zCATmJiRhLuuzGv3lmPl88fdMYxO5jdHl
AjhlJzbjjE0KbR06kLvVfRDGYO68D+eGVLx5BQshyiPwmjETofXOrPcontaOwuQK
9e3OmMiYPznUGpxmPKxBT8dkzGiQ2S42qtHcrOx3yqpp6gV/EylQXj1PpkOHWtc7
xNhC6+XbK4JoRxlUk9uEnnuev037o5uKrKtLC3oG8yAPhUT68TruTjoLVsnQ0eGM
VmQvorc6Q0cjvhuy4JrCn0cAl+zq9oPcLcgHYGM8KuSJozEvQSiyMA2jHjFa7bMF
rESwEP55TbJ5/a2v1vKdOvCWgXE5EME3fqZ/KCzauJ6eAGNjtzNGe+LDIzQoOuit
4Mciy5GHLxXgd7AP/h/b3na7ZSGT3ZSCizf7Io6hpQroKjyek16gWJ4Bp5ZublOi
CZer3vNy2jnIhey5Pl4OPC7Nuc4dP198Q8Jo6uTXfSOWn9F/WibROapQd/FQEMf0
2dZEfUyB1q/4cV9GsDC4ud9BFZiRvZPU/bgqwCaCjiwIoCQmI1/S7p/lt/mRlhI4
lZ/u0C1tCatZ+bDbJsDAdOVjcr3h9wrtZxALxzttbSA8dPZKbOq5U7Po4r+e6Tsp
m386jDes6M6TzoeA0tLKuKUhEIvZ/gSsuVQDkvSlsRhgU/dFXLKodMAzro+JWN+g
DNR1Xjcs0y+L8oB3OKxyEThi8aHbKiJPk2QtoyFZqIjVx7Gpbray1HOWUP7Xn/bE
UMBHXYo9f9rulWi446/wpHF9TfaxyLgXOE7FkTAp+EJQp8BGgFhw8HeApBzhCusG
yZ9NoU9ppelAVlinWW0Mfryc4gC8xlAgLdD2OlE6r7oUij0kpRRNL0KvjXr3uFN5
tkpBWV8dGxfoClazK60G9kdg9v79g3/T3WDCKva2My3iTUqF24zjsbH7z+S8FaEy
jbSvkhdVaJ7XyCzPPWSkckP8ofNuOusn6u81cEgXQbrOdj3VXVbTvxqfGeHK0Kmb
IVGpZLtDd0GgShkVhtncdbSW6tdfikOtxJ1EPfxRFkOjrA6+yw8CqJHwYzR7wVDE
Adicj0Sn7LWnAGkDmWBQ+130JG6utHCcWAeA1P4gNoq6vdKKZvMLT7914JUwr3hC
U7y9jjP0lCk++O1cMER8Wo2XY5R960XCyJ6/NhAFyCvwVgdzzOrygjWX48j/QyLB
Nx+AdVTykJzgFW/q+L4Y0X21LA9ToOlY+HcXTFJ8d46iUuU0BrnJklJriARyQzYh
Iq5FIX8olDJ6LDO963GS4JfCPmcpOoqavrzuGyJffgwwKUKKws8j1+Ip0dnVFi9B
9wlagSJ0sGEKfvES6vLP7/UDabtyh+VkbtqQ97QBshg4P+qxKCUBg+JDtcknXe1e
1fQt8Lu0Yt/jE+7h4yuj3hif7CuqndH2ucZqOmzNDAylvnBEGV5GR+kFki89EciV
vyErmykNroxagawkAhlAr5jV9mRj+CNzOmJ9MeXwxMgx89zVPEtYNZ057WqdXqRR
BuqpBtMcFwg0SeUt7Lmrk2R5O/zcXzHK8CJCGqOrxR+erOMvS1ckTfqeztl6naYL
3/IcZxIVQ3pcis4VdskAjI4oCO/nlxAvgb5QX9sE+5rJe152n4U0XO8mlwy66YUb
i+xx5jAWFPl6b/VDyOqd6RTVAlO2/+zApZGef0m194nLYxU805IVsv5l8vznqVSr
+3ZxCPOLyqQINiJrgvlZXRrQAovvC61gGrKnxDn0WJRYSk7GB2ali6BtjPZO0w6M
0J949l4cVvbAQVS4ZRRT7jbaedkmz0cwg2lQ2RFaHpkd4nrTm2Ue3iRpsDXY96FH
oalh9yQz6E1Ac8QPD4YRtK2EPgzTRfjOt7kxOLDSZ3+WZ1v3lEmu1VtMAOjtFs5k
xGPGFYqlynRxcKAAW0epYSQ4OHTYvV5l6Jpq06YfV8vKtutdIbt/lGy6m86aVgb4
n9lkuIhBv8anHMzdZ/E+Iz3NTvTZyxOviYX8LA6ollbf7ObjIQ1GmS/meFZYSWVa
eZten/oJBInS10avCdNas2Av27oK9ijGcpTmOC6Ln/EFsppM1l4txYPMAUyWmoM5
OkXHSNhrk8hDi2msvJP0nTK9Lqmo3qpYYg9wkSXGCs2SNoXs43wug1/DRJ9AKpnS
gnYZJfxhy6EJ+mFL+LTQeRNFwXScrHrZ1zlJirzmR8FKW9hgQ6Nx6ZjlbTsKhII0
2D+QcefHq8kXtRVtMFnLF3lSBpSRs0JcxNrH4vnGdh3b5e7J8+xyKL3+FjosFkV5
qzmIVpcc6fJprXuBVOHYbophqBvfxm4Own8nvYS2WoJIUL8TAE++IKiqmxD05z49
sll9l8/BS4KUtvFo8dJn/6FZkhCNVZy9JDu8v2LkI+w8rSAgaiqNDS/6Hsk6e03I
gU12x2oyMKbhQu+7n5jrkoUcKmM4hdhm6bTlpFVRmlzBAqwk8tuaAoyNCi4O9TZ/
Wc0lri3lULFETMZDisYO65r8Ui08Rh2lscZs/8R8j4YMhjCokIU+93hF9QohqbnN
Y5RKSR1Rp6K1Kba4Wjrqtdo+C/IUMtrWE+Xo4s9zDNtl14MdGvV7ip/2xiEEiHej
rmrUnVaQwRhZZ13sSGxeUJUlZR8AN5UKnhaaaTiBn2bekRFUoh+Mi8OWx9PvO/7g
RJ9DqPSjUP9T/EuPdA/Vr+ffHKpm6mJYSDsjDTfo8ezK4Oi+p/MG/El7uTccXcnV
Cw7V6Xz+rPCeBwMQ1cfgH0nYDkaClYuSjux5VO6mErnbEt1veUqrm2/QHr4jUfOh
Ppxpq68z2xZnxK3TI+SW/yKMrRkffvpZLFy9m1WKma/vnjIP+zlWLq8EnwReQA/K
k2fG50P+23iAeMd2pEM4Mc74GPVDjH9ghOXouYTCAbtIqq7NgP3Gn3CZbNGZslC2
162g5VfDB1SMTdQZOO1l6bEg6ETveKRsDJESG9Vx4U8PkRPV0dh6j+q7tNPgTG3/
y0LsnseazIfoBd7cT8UqDWMyDOXFY/rfHomXBtLmgZwvef22ICmjBpi41aa19/wR
DlrHZLdkIsU/LfN56l6V3ixIx0c32Z/2K6LoKdrqTKNvW6CwqpUt94cEvRGxAczF
drKQyz7vUj+6RQaDqaaTKo8zzxoB1LMdH+Yh3zFSgSFpYyNlT63owSOERKbid6C5
AV8jVRqR5MlvBAfCq3euDsDF9/zavK+2LAqGzHN8Npew0Q5kPeRTflk5pz/Fk4JB
bnBfsJRSvXdxyk/HfP7QsavRKO1vpA//7CR+/d+GIBINYcr8oosebfY2I2GvxiOb
PhCxtRdeEEmwu6pnHpp0yJqaQ3fhLwskZyQq8MNnSfW5k/HTKdJeaKuoJzAnrM8+
YCMv2gfoyFRpxlPSi4fj2eZtSC2cx9slaIV9hUPPZ4R7LMN6SyjFGlXE5zh1GVGn
TNUIsRabbDL2b68zj6drjMty3tLHcMC5Sl1ogP0YepzgD/KZhzx2XvbTuCGIC3Al
oDjNdq9zJZ0nNydF2m1RtA==
=atkp
-----END PGP MESSAGE-----
